X: 18
T: Trip To Sligo, The
Z: Frank the Music Teacher
S: https://thesession.org/tunes/397#setting54304
R: jig
M: 6/8
L: 1/8
K: Emin
|:D|"Em"E2e BGE| "D"D2 d AFD|"Em"E2e BGE|"Em"GFE e2f|
"G"gfe dBG| "D"ABG FED| "C"EFG ABc|"D" BGF "Em"E2:|
|:B|"Em"eBe fed|"D"dAd fed|"Em"eBe gfe|"D"faf gfe|
"D"faf gfe| "D"dcB AFD|"C"EFG ABc|"D"BGF "Em"E2:|

